src/pos-icons/axis-z-rotate-clockwise.svg

<svg height="24" viewBox="0 0 24 24" width="24" xmlns="http://www.w3.org/2000/svg"><path d="m14 12-4 4 4 4v-3.1c4.56-.46 8-2.48 8-4.9s-3.44-4.44-8-4.9v1.99c3.45.34 6 1.51 6 2.91s-2.55 2.57-6 2.91zm-10 0c0-1.4 2.55-2.57 6-2.91v-1.99c-4.56.46-8 2.48-8 4.9 0 2.16 2.74 4 6.58 4.7l-.7-.7 1.2-1.21c-2.97-.43-5.08-1.52-5.08-2.79m9-10h-2v11l2-2zm0 20v-1l-2-2v3z"/></svg>

<?xml version="1.0" encoding="UTF-8"?><!DOCTYPE svg PUBLIC "-//W3C//DTD SVG 1.1//EN" "http://www.w3.org/Graphics/SVG/1.1/DTD/svg11.dtd"><svg xmlns="http://www.w3.org/2000/svg" xmlns:xlink="http://www.w3.org/1999/xlink" version="1.1" id="mdi-axis-z-rotate-clockwise" width="24" height="24" viewBox="0 0 24 24"><path d="M14,12L10,16L14,20V16.9C18.56,16.44 22,14.42 22,12C22,9.58 18.56,7.56 14,7.1V9.09C17.45,9.43 20,10.6 20,12C20,13.4 17.45,14.57 14,14.91V12M4,12C4,10.6 6.55,9.43 10,9.09V7.1C5.44,7.56 2,9.58 2,12C2,14.16 4.74,16 8.58,16.7L7.88,16L9.08,14.79C6.11,14.36 4,13.27 4,12M13,2H11V13L13,11V2M13,22V21L11,19V22H13Z" /></svg>
